packages/dnb-ui-lib/assets/icons/question.svg

<svg width="16" height="16" viewBox="0 0 16 16" fill="none" xmlns="http://www.w3.org/2000/svg">
<path fill-rule="evenodd" clip-rule="evenodd" d="M6.14209 4.87551C6.14232 3.67087 7.22313 2.67293 8.41439 2.7553C9.61616 2.83839 10.5374 3.98528 10.3733 5.16806C10.2669 5.93479 9.70614 6.622 8.97633 6.88003C8.01504 7.2199 7.663 8.0029 7.55047 8.70632C7.49611 9.04614 7.49129 9.39066 7.49667 9.69131C7.49941 9.84464 7.50394 9.97113 7.5081 10.0873C7.51321 10.2303 7.51777 10.3576 7.51777 10.5002C7.51777 10.9144 7.85356 11.2502 8.26777 11.2502C8.68199 11.2502 9.01777 10.9144 9.01777 10.5002C9.01777 10.3504 9.01151 10.1615 9.00563 9.98422L9.00563 9.98418C9.00177 9.86783 8.99807 9.75649 8.99643 9.66448C8.99154 9.39108 8.99836 9.15128 9.03164 8.94327C9.09438 8.55103 9.22163 8.38429 9.47633 8.29424C10.7347 7.84936 11.6756 6.69619 11.8591 5.37421C12.1418 3.33617 10.5922 1.40229 8.51785 1.25887C6.4652 1.11695 4.64249 2.79596 4.64209 4.87522C4.64201 5.28944 4.97773 5.62529 5.39195 5.62537C5.80616 5.62545 6.14201 5.28972 6.14209 4.87551ZM8.25 14.5C8.80228 14.5 9.25 14.0523 9.25 13.5C9.25 12.9477 8.80228 12.5 8.25 12.5C7.69772 12.5 7.25 12.9477 7.25 13.5C7.25 14.0523 7.69772 14.5 8.25 14.5Z" fill="black"/>
</svg>

<svg width="16" height="16" viewBox="0 0 16 16" fill="none" xmlns="http://www.w3.org/2000/svg"><path fill-rule="evenodd" clip-rule="evenodd" d="M6.142 4.876c0-1.205 1.081-2.203 2.272-2.12 1.202.082 2.123 1.23 1.96 2.412A2.174 2.174 0 018.975 6.88c-.961.34-1.313 1.123-1.426 1.826a5.62 5.62 0 00-.053.985c.002.154.007.28.011.396.005.143.01.27.01.413a.75.75 0 001.5 0c0-.15-.006-.338-.012-.516l-.01-.32a4.196 4.196 0 01.036-.72c.062-.393.19-.56.444-.65a3.673 3.673 0 002.383-2.92c.283-2.038-1.267-3.972-3.341-4.115-2.053-.142-3.876 1.537-3.876 3.616a.75.75 0 101.5 0zM8.25 14.5a1 1 0 100-2 1 1 0 000 2z" fill="#000"/></svg>
